X:1
T:Title
%%score ( 1 2 ) { 3 | 4 }
L:1/8
Q:1/4=100
M:4/4
K:Ab
V:1 treble nm="Grand Piano, Soprano"
V:2 treble 
V:3 bass nm="Choir Pad, My Light and Song"
V:4 bass 
V:1
 [CA]3 [DB] [CA]>E C>E | [CA]2 [EB]2 [Ec]4 | [EB]>[EB] [EB]>[EB] [Ge]2 [Gd]2 | [Ec]6 z2 | %4
w: By~William~James~Kirkpatrick * * * * *||||
 [CA]3 [DB] [CA]>E C>E | [CA]2 [EB]2 [Ec]4 | [EB]>[EB] [EB]>[EB] [Ge]2 [EG]2 | [EA]6 z2 | %8
w: ||||
 [DF]2 [Fd]2 [Fd]3 [FB] | [EA]>[EG] [EA]>[GB] [Ac]4 | [GB]2 [Ge]2 [Ge]3 [EG] | %11
w: |||
 [=DB]>[DA] [DG]>[DF] z2 _D2 | [CE]2 [CA]2 [Ec]3 [EA] | [DF]>[D=E] [DF]>[FA] [Fd]4 | %14
w: |||
 [Ec]>[DB] [CA]>[Ec] [DB]2 [EG]2 | [EA]6 z2 | [DF]>[D=E] [DF]>[FA] [Fd]2 (3AGF | %17
w: |||
 [CE]>[_C=D] [=CE]>[CA] [Ec]2 (3ABc | [GB]>[GB] [GB]>[GB] [Ac]2 [A=d]2 | e2- [Ae-]2 [Ge]2 z2 | %20
w: |||
 [CE]>[_C=D] [=CE]>[CA] [Ec]2 (3BAG | [DF]>[D=E] [DF]>[FA] [Fd]2 (3Bcd | %22
w: ||
 [Ec]>[DB] [CA]>[Ec] [DB]2 [DG]2 | A8 | z8 |] %25
w: |||
V:2
 x8 | x8 | x8 | x8 | x8 | x8 | x8 | x8 | x8 | x8 | x8 | z4 E4 | x8 | x8 | x8 | x8 | x8 | x8 | x8 | %19
 G2 z2 z4 | x8 | x8 | x8 | C2 D2 C4- | C2 z2 z4 |] %25
V:3
 E,3 E, E,>E, C,>E, | E,2 G,2 A,4 | G,>G, G,>G, B,2 B,2 | A,6 z2 | E,3 E, E,>E, C,>E, | %5
 E,2 G,2 A,4 | G,>G, G,>G, B,2 D2 | C6 z2 | A,2 A,2 A,3 D | C>B,[K:treble] C>E E4 | %10
 E2 B,2[K:bass] B,3 B, | B,>B, B,>B, G,2 B,2 | A,2 E,2 A,3 A, | A,>G, A,>A, A,4 | %14
 A,>A, A,>A, G,2 D2 | C6 z2 | A,>A, A,>A, A,2 z2 | A,>A, A,>A, A,2 z2 | B,>B, E>E E2 B,2 | %19
 B,2 C2 D2 z2 | A,>A, A,>A, A,2 z2 | A,>A, A,>A, A,2 z2 | A,>A, A,>A, G,2 B,2 | A,2 F,2 E,4- | %24
 E,2 z2 z4 |] %25
V:4
 A,,3 A,, A,,2 z2 | A,,2 E,2 A,,4 | E,>E, E,>E, E,2 E,2 | z8 | A,,3 A,, A,,2 z2 | A,,2 E,2 A,,4 | %6
 E,>E, E,>E, E,2 E,2 | [A,,A,]6 z2 | D,2 D,2 D,3 D, | E,>E, E,>E, A,4 | E,2 E,2 E,3 E, | %11
 B,,>B,, B,,>B,, E,4 | A,,2 A,,2 A,,3 C, | D,>D, D,>D, D,4 | E,>E, E,>E, E,2 E,2 | [A,,A,]6 z2 | %16
 D,>D, D,>D, D,2 z2 | A,,>A,, A,,>A,, A,,2 z2 | E,>E, E,>E, A,2 F,2 | E,6 z2 | %20
 A,,>A,, A,,>A,, A,,2 z2 | D,>D, D,>D, D,2 z2 | E,>E, E,>E, E,2 E,2 | A,,8 | z8 |] %25

